X: 306
T: Grey Buck, The
R: Jig
K: D
M: 6/8
L: 1/8
"D"A3f3|"A"ede "D"fdB|ABA ABc|"Em" def "A"edB|
"D"A3f3|"A"ede "D" fdB|"A"ABA ABc|1 "D"d3 dcB:|2 "D"d3 def||
|:"G"gfg "Em"e3|"D"fef "Bm"d2A|"Em"B2ee2f|"A"gfe dcB|
"D"A2f fef|"Em"B2g gfg|"A"ABA ABc|1 "D"d3 def:|2 "D"d3 dcB|]

%%newpage
%%textfont * 14
%%begintext justify
%%32 Bar Jigs
%%endtext
